assets/stickers/emoticons/stickers/imgly_sticker_emoticons_duckface.svg

<svg height="58" viewBox="0 0 62 58" width="62" xmlns="http://www.w3.org/2000/svg"><g fill="none"><path d="m61.3 34.5c0 13-11.9 23.5-30.3 23.5s-30.3-10.5-30.3-23.5 11.9-32.5 30.3-32.5 30.3 19.5 30.3 32.5z" fill="#f7910b"/><path d="m61.3 34.5c0 13-11.9 19.5-30.3 19.5s-30.3-6.5-30.3-19.5 11.9-34.5 30.3-34.5 30.3 21.5 30.3 34.5z" fill="#f7910b"/><path d="m31 0c18.4 0 30.3 21.5 30.3 34.5s-11.9 19.5-30.3 19.5" fill="#f9a908"/><path d="m61.3 34.5c0 13-11.9 19.5-30.3 19.5s-30.3-6.5-30.3-19.5 11.9-32.5 30.3-32.5 30.3 19.5 30.3 32.5z" fill="#f9a908"/><path d="m.7 34.5c0-13 11.9-32.5 30.3-32.5" fill="#f9c55d"/><path d="m31 2c18.4 0 30.3 19.5 30.3 32.5s-11.9 23.5-30.3 23.5" fill="#f7910b"/><path d="m31 2c18.4 0 30.3 19.5 30.3 32.5" fill="#ea7103"/><path d="m50.7 48.8c0 2.6-6.7 7.3-13.2 7.5-10.1.3-10.5-4.9-10.5-7.5" fill="#f7910b"/><circle cx="9.3" cy="31.5" fill="#f7910b" r="1"/><circle cx="4.8" cy="33.5" fill="#f7910b" r="1.1"/><circle cx="7.8" cy="29.5" fill="#f7910b" r="1"/><circle cx="12.4" cy="31.3" fill="#f7910b" r="1"/><circle cx="57.6" cy="34.4" fill="#f9a908" r="1"/><circle cx="54.1" cy="33.2" fill="#f9a908" r="1"/><circle cx="58.2" cy="40.2" fill="#f9a908" r="1"/><circle cx="54.4" cy="44" fill="#f9a908" r="1.3"/><circle cx="55.5" cy="36.1" fill="#f9a908" r="1"/><circle cx="8.3" cy="35.5" fill="#f7910b" r="1"/><circle cx="9.1" cy="27.1" fill="#f7910b" r="1"/><g fill="#f9a908"><circle cx="3.8" cy="13.3" r="1.1"/><circle cx="7" cy="9.8" r="1"/><circle cx="58.2" cy="15.7" r="1"/><circle cx="55" cy="4.8" r="1"/><circle cx="60" cy="13.3" r="1"/><circle cx="5" cy="16.3" r="1"/></g><g transform="translate(23 32)"><circle cx="3.9" cy="5.1" fill="#d87703" r="3.5"/><circle cx="26.8" cy="5.1" fill="#d87703" r="3.5"/><circle cx="3.9" cy="4.1" fill="#1e4784" r="3.5"/><path d="m3.9.6c1.9 0 3.5 1.6 3.5 3.5s-1.6 3.5-3.5 3.5" fill="#00233f"/><circle cx="26.8" cy="4.1" fill="#1e4784" r="3.5"/><path d="m26.8.6c1.9 0 3.5 1.6 3.5 3.5s-1.6 3.5-3.5 3.5" fill="#00233f"/></g><g transform="translate(18 18)"><path d="m11.1 6.4c-2-.7-4-.5-4.3.5l7.4 2.6c.3-1-1.1-2.4-3.1-3.1z" fill="#19bca4"/><path d="m29.6.2c-1.8.2-3.2 1.1-3.1 1.9l6.5-.8c-.1-.8-1.7-1.3-3.4-1.1z" fill="#19bca4"/><path d="m10.3 8.7c2 .7 3.5 1.8 3.9.8l-7.4-2.6c-.4 1 1.4 1.1 3.5 1.8z" fill="#109da0"/><path d="m29.8 2.2c1.8-.2 3.3.1 3.2-.8l-6.5.8c.1.8 1.5.2 3.3 0z" fill="#109da0"/><path d="m8.4 20.9c-4.3 0-7.8 1-7.8 2.2s3.5.7 7.8.7 7.8.6 7.8-.7-3.4-2.2-7.8-2.2z" fill="#f9c55d"/><path d="m32.4 20.9c-4.3 0-7.8 1-7.8 2.2s3.5.7 7.8.7 7.8.6 7.8-.7-3.5-2.2-7.8-2.2z" fill="#f9a908"/></g><path d="m48.5 50.4c0 1.4-6.2 5.4-12.6 4.3-5.5-.9-8-3.7-8-5.1s4.9-2.6 10.5-2.6 10.1 2 10.1 3.4z" fill="#d14905"/><path d="m48.5 50.4c0 1.4-6.5 3.8-12.9 2.7-5.5-.9-7.6-2-7.6-3.4s4.8-2.7 10.4-2.7 10.1 2 10.1 3.4z" fill="#b73e08"/><path d="m27.7 47.4s2.5-5.5 10-5.5 8 .7 10.5 4.2c2 2.8 7.6 2.8 1.7 4.3-5.7 1.5-18.8.5-21.2-.3-3.7-1.2-1-2.7-1-2.7z" fill="#f95d06"/><path d="m37.7 41.9c7.5 0 8 .7 10.5 4.2 2 2.8 7.6 2.8 1.7 4.3" fill="#d14905"/><path d="m37.6 47.8c-1.4-2.7-2.1-4-4.8-4.9-3.7 1.6-5.1 4.6-5.1 4.6s-2.7 1.4 1 2.7c1.5.5 7.2 1.1 12.6 1.1-.8-.8-2.8-1.8-3.7-3.5z" fill="#f77f08"/></g></svg>

<?xml version="1.0" encoding="UTF-8"?>
<svg width="62px" height="58px" viewBox="0 0 62 58" version="1.1" xmlns="http://www.w3.org/2000/svg" xmlns:xlink="http://www.w3.org/1999/xlink">
    <!-- Generator: Sketch 43.1 (39012) - http://www.bohemiancoding.com/sketch -->
    <title>imgly_sticker_emoticons_duckface</title>
    <desc>Created with Sketch.</desc>
    <defs></defs>
    <g id="Page-1" stroke="none" stroke-width="1" fill="none" fill-rule="evenodd">
        <g id="duckface" fill-rule="nonzero">
            <g id="Group">
                <path d="M61.3,34.5 C61.3,47.5 49.4,58 31,58 C12.6,58 0.7,47.5 0.7,34.5 C0.7,21.5 12.6,2 31,2 C49.4,2 61.3,21.5 61.3,34.5 Z" id="Shape" fill="#F7910B"></path>
                <path d="M61.3,34.5 C61.3,47.5 49.4,54 31,54 C12.6,54 0.7,47.5 0.7,34.5 C0.7,21.5 12.6,0 31,0 C49.4,0 61.3,21.5 61.3,34.5 Z" id="Shape" fill="#F7910B"></path>
                <path d="M31,0 C49.4,0 61.3,21.5 61.3,34.5 C61.3,47.5 49.4,54 31,54" id="Shape" fill="#F9A908"></path>
                <path d="M61.3,34.5 C61.3,47.5 49.4,54 31,54 C12.6,54 0.7,47.5 0.7,34.5 C0.7,21.5 12.6,2 31,2 C49.4,2 61.3,21.5 61.3,34.5 Z" id="Shape" fill="#F9A908"></path>
                <path d="M0.7,34.5 C0.7,21.5 12.6,2 31,2" id="Shape" fill="#F9C55D"></path>
                <path d="M31,2 C49.4,2 61.3,21.5 61.3,34.5 C61.3,47.5 49.4,58 31,58" id="Shape" fill="#F7910B"></path>
                <path d="M31,2 C49.4,2 61.3,21.5 61.3,34.5" id="Shape" fill="#EA7103"></path>
                <path d="M50.7,48.8 C50.7,51.4 44,56.1 37.5,56.3 C27.4,56.6 27,51.4 27,48.8" id="Shape" fill="#F7910B"></path>
                <circle id="Oval" fill="#F7910B" cx="9.3" cy="31.5" r="1"></circle>
                <circle id="Oval" fill="#F7910B" cx="4.8" cy="33.5" r="1.1"></circle>
                <circle id="Oval" fill="#F7910B" cx="7.8" cy="29.5" r="1"></circle>
                <circle id="Oval" fill="#F7910B" cx="12.4" cy="31.3" r="1"></circle>
                <circle id="Oval" fill="#F9A908" cx="57.6" cy="34.4" r="1"></circle>
                <circle id="Oval" fill="#F9A908" cx="54.1" cy="33.2" r="1"></circle>
                <circle id="Oval" fill="#F9A908" cx="58.2" cy="40.2" r="1"></circle>
                <circle id="Oval" fill="#F9A908" cx="54.4" cy="44" r="1.3"></circle>
                <circle id="Oval" fill="#F9A908" cx="55.5" cy="36.1" r="1"></circle>
                <circle id="Oval" fill="#F7910B" cx="8.3" cy="35.5" r="1"></circle>
                <circle id="Oval" fill="#F7910B" cx="9.1" cy="27.1" r="1"></circle>
                <circle id="Oval" fill="#F9A908" cx="3.8" cy="13.3" r="1.1"></circle>
                <circle id="Oval" fill="#F9A908" cx="7" cy="9.8" r="1"></circle>
                <circle id="Oval" fill="#F9A908" cx="58.2" cy="15.7" r="1"></circle>
                <circle id="Oval" fill="#F9A908" cx="55" cy="4.8" r="1"></circle>
                <circle id="Oval" fill="#F9A908" cx="60" cy="13.3" r="1"></circle>
                <circle id="Oval" fill="#F9A908" cx="5" cy="16.3" r="1"></circle>
                <g transform="translate(23.000000, 32.000000)">
                    <circle id="Oval" fill="#D87703" cx="3.9" cy="5.1" r="3.5"></circle>
                    <circle id="Oval" fill="#D87703" cx="26.8" cy="5.1" r="3.5"></circle>
                    <circle id="Oval" fill="#1E4784" cx="3.9" cy="4.1" r="3.5"></circle>
                    <path d="M3.9,0.6 C5.8,0.6 7.4,2.2 7.4,4.1 C7.4,6 5.8,7.6 3.9,7.6" id="Shape" fill="#00233F"></path>
                    <circle id="Oval" fill="#1E4784" cx="26.8" cy="4.1" r="3.5"></circle>
                    <path d="M26.8,0.6 C28.7,0.6 30.3,2.2 30.3,4.1 C30.3,6 28.7,7.6 26.8,7.6" id="Shape" fill="#00233F"></path>
                </g>
                <g transform="translate(18.000000, 18.000000)" id="Shape">
                    <path d="M11.1,6.4 C9.1,5.7 7.1,5.9 6.8,6.9 L14.2,9.5 C14.5,8.5 13.1,7.1 11.1,6.4 Z" fill="#19BCA4"></path>
                    <path d="M29.6,0.2 C27.8,0.4 26.4,1.3 26.5,2.1 L33,1.3 C32.9,0.5 31.3,-8.8817842e-16 29.6,0.2 Z" fill="#19BCA4"></path>
                    <path d="M10.3,8.7 C12.3,9.4 13.8,10.5 14.2,9.5 L6.8,6.9 C6.4,7.9 8.2,8 10.3,8.7 Z" fill="#109DA0"></path>
                    <path d="M29.8,2.2 C31.6,2 33.1,2.3 33,1.4 L26.5,2.2 C26.6,3 28,2.4 29.8,2.2 Z" fill="#109DA0"></path>
                    <path d="M8.4,20.9 C4.1,20.9 0.6,21.9 0.6,23.1 C0.6,24.3 4.1,23.8 8.4,23.8 C12.7,23.8 16.2,24.4 16.2,23.1 C16.2,21.8 12.8,20.9 8.4,20.9 Z" fill="#F9C55D"></path>
                    <path d="M32.4,20.9 C28.1,20.9 24.6,21.9 24.6,23.1 C24.6,24.3 28.1,23.8 32.4,23.8 C36.7,23.8 40.2,24.4 40.2,23.1 C40.2,21.8 36.7,20.9 32.4,20.9 Z" fill="#F9A908"></path>
                </g>
            </g>
            <path d="M48.5,50.4 C48.5,51.8 42.3,55.8 35.9,54.7 C30.4,53.8 27.9,51 27.9,49.6 C27.9,48.2 32.8,47 38.4,47 C44,47 48.5,49 48.5,50.4 Z" id="Shape" fill="#D14905"></path>
            <path d="M48.5,50.4 C48.5,51.8 42,54.2 35.6,53.1 C30.1,52.2 28,51.1 28,49.7 C28,48.3 32.8,47 38.4,47 C44,47 48.5,49 48.5,50.4 Z" id="Shape" fill="#B73E08"></path>
            <path d="M27.7,47.4 C27.7,47.4 30.2,41.9 37.7,41.9 C45.2,41.9 45.7,42.6 48.2,46.1 C50.2,48.9 55.8,48.9 49.9,50.4 C44.2,51.9 31.1,50.9 28.7,50.1 C25,48.9 27.7,47.4 27.7,47.4 Z" id="Shape" fill="#F95D06"></path>
            <path d="M37.7,41.9 C45.2,41.9 45.7,42.6 48.2,46.1 C50.2,48.9 55.8,48.9 49.9,50.4" id="Shape" fill="#D14905"></path>
            <path d="M37.6,47.8 C36.2,45.1 35.5,43.8 32.8,42.9 C29.1,44.5 27.7,47.5 27.7,47.5 C27.7,47.5 25,48.9 28.7,50.2 C30.2,50.7 35.9,51.3 41.3,51.3 C40.5,50.5 38.5,49.5 37.6,47.8 Z" id="Shape" fill="#F77F08"></path>
        </g>
    </g>
</svg>
